icon-themes/breeze_svg/cmd/32/extrusiontiltleft.svg

<svg viewBox="0 0 32 32" xmlns="http://www.w3.org/2000/svg"><path d="m16 4v24h1v-24z" fill="#1d99f3"/><path d="m9 3.5-4 4-1 1 1 1 4 4 .7070312-.707031-3.7929687-3.792969h9.0859375v-1h-9.0859375l3.7929687-3.7929688zm9.5 4.5a.5.5 0 0 0 -.5.5.5.5 0 0 0 .5.5.5.5 0 0 0 .5-.5.5.5 0 0 0 -.5-.5zm3 1a.5.5 0 0 0 -.5.5.5.5 0 0 0 .5.5.5.5 0 0 0 .5-.5.5.5 0 0 0 -.5-.5zm3 2a.5.5 0 0 0 -.5.5.5.5 0 0 0 .5.5.5.5 0 0 0 .5-.5.5.5 0 0 0 -.5-.5zm2 3a.5.5 0 0 0 -.5.5.5.5 0 0 0 .5.5.5.5 0 0 0 .5-.5.5.5 0 0 0 -.5-.5zm1 3a.5.5 0 0 0 -.5.5.5.5 0 0 0 .5.5.5.5 0 0 0 .5-.5.5.5 0 0 0 -.5-.5zm-1 3a.5.5 0 0 0 -.5.5.5.5 0 0 0 .5.5.5.5 0 0 0 .5-.5.5.5 0 0 0 -.5-.5zm-2 3a.5.5 0 0 0 -.5.5.5.5 0 0 0 .5.5.5.5 0 0 0 .5-.5.5.5 0 0 0 -.5-.5zm-13 2a.5.5 0 0 0 -.5.5.5.5 0 0 0 .5.5.5.5 0 0 0 .5-.5.5.5 0 0 0 -.5-.5zm10 0a.5.5 0 0 0 -.5.5.5.5 0 0 0 .5.5.5.5 0 0 0 .5-.5.5.5 0 0 0 -.5-.5zm-7 1a.5.5 0 0 0 -.5.5.5.5 0 0 0 .5.5.5.5 0 0 0 .5-.5.5.5 0 0 0 -.5-.5zm4 0a.5.5 0 0 0 -.5.5.5.5 0 0 0 .5.5.5.5 0 0 0 .5-.5.5.5 0 0 0 -.5-.5z" fill="#4d4d4d"/></svg>

<svg xmlns="http://www.w3.org/2000/svg" viewBox="0 0 32 32">
 <path 
     style="fill:#1d99f3" 
     d="M 16 4 L 16 28 L 17 28 L 17 4 L 16 4 z "
     />
 <path 
     style="fill:#4d4d4d" 
     d="M 9 3.5 L 5 7.5 L 4 8.5 L 5 9.5 L 9 13.5 L 9.7070312 12.792969 L 5.9140625 9 L 15 9 L 15 8 L 5.9140625 8 L 9.7070312 4.2070312 L 9 3.5 z M 18.5 8 A 0.5 0.5 0 0 0 18 8.5 A 0.5 0.5 0 0 0 18.5 9 A 0.5 0.5 0 0 0 19 8.5 A 0.5 0.5 0 0 0 18.5 8 z M 21.5 9 A 0.5 0.5 0 0 0 21 9.5 A 0.5 0.5 0 0 0 21.5 10 A 0.5 0.5 0 0 0 22 9.5 A 0.5 0.5 0 0 0 21.5 9 z M 24.5 11 A 0.5 0.5 0 0 0 24 11.5 A 0.5 0.5 0 0 0 24.5 12 A 0.5 0.5 0 0 0 25 11.5 A 0.5 0.5 0 0 0 24.5 11 z M 26.5 14 A 0.5 0.5 0 0 0 26 14.5 A 0.5 0.5 0 0 0 26.5 15 A 0.5 0.5 0 0 0 27 14.5 A 0.5 0.5 0 0 0 26.5 14 z M 27.5 17 A 0.5 0.5 0 0 0 27 17.5 A 0.5 0.5 0 0 0 27.5 18 A 0.5 0.5 0 0 0 28 17.5 A 0.5 0.5 0 0 0 27.5 17 z M 26.5 20 A 0.5 0.5 0 0 0 26 20.5 A 0.5 0.5 0 0 0 26.5 21 A 0.5 0.5 0 0 0 27 20.5 A 0.5 0.5 0 0 0 26.5 20 z M 24.5 23 A 0.5 0.5 0 0 0 24 23.5 A 0.5 0.5 0 0 0 24.5 24 A 0.5 0.5 0 0 0 25 23.5 A 0.5 0.5 0 0 0 24.5 23 z M 11.5 25 A 0.5 0.5 0 0 0 11 25.5 A 0.5 0.5 0 0 0 11.5 26 A 0.5 0.5 0 0 0 12 25.5 A 0.5 0.5 0 0 0 11.5 25 z M 21.5 25 A 0.5 0.5 0 0 0 21 25.5 A 0.5 0.5 0 0 0 21.5 26 A 0.5 0.5 0 0 0 22 25.5 A 0.5 0.5 0 0 0 21.5 25 z M 14.5 26 A 0.5 0.5 0 0 0 14 26.5 A 0.5 0.5 0 0 0 14.5 27 A 0.5 0.5 0 0 0 15 26.5 A 0.5 0.5 0 0 0 14.5 26 z M 18.5 26 A 0.5 0.5 0 0 0 18 26.5 A 0.5 0.5 0 0 0 18.5 27 A 0.5 0.5 0 0 0 19 26.5 A 0.5 0.5 0 0 0 18.5 26 z "
     />
</svg>
